modules/hawcons-stroke/icons/icon-61-file-tgz.svg

<?xml version="1.0" encoding="UTF-8" standalone="no"?>
<svg width="32px" height="32px" viewBox="0 0 32 32" version="1.1" xmlns="http://www.w3.org/2000/svg" xmlns:xlink="http://www.w3.org/1999/xlink" xmlns:sketch="http://www.bohemiancoding.com/sketch/ns">
    <!-- Generator: Sketch 3.0.3 (7891) - http://www.bohemiancoding.com/sketch -->
    <title>icon 61 file tgz</title>
    <desc>Created with Sketch.</desc>
    <defs></defs>
    <g id="Page-1" stroke="none" stroke-width="1" fill="none" fill-rule="evenodd" sketch:type="MSPage">
        <g id="icon-61-file-tgz" sketch:type="MSArtboardGroup" fill="#929292">
            <path d="M8.00684834,10 C6.34621185,10 5,11.3422643 5,12.9987856 L5,20.0012144 C5,21.6573979 6.33599155,23 8.00684834,23 L24.9931517,23 C26.6537881,23 28,21.6577357 28,20.0012144 L28,12.9987856 C28,11.3426021 26.6640085,10 24.9931517,10 L8.00684834,10 L8.00684834,10 Z M7.99456145,11 C6.89299558,11 6,11.9001762 6,12.992017 L6,20.007983 C6,21.1081436 6.90234375,22 7.99456145,22 L25.0054385,22 C26.1070044,22 27,21.0998238 27,20.007983 L27,12.992017 C27,11.8918564 26.0976562,11 25.0054385,11 L7.99456145,11 L7.99456145,11 Z M10,14 L10,20 L11,20 L11,14 L13,14 L13,13 L8,13 L8,14 L10,14 L10,14 Z M18,17 L18,19 L15.9998075,19 C15.4437166,19 15,18.5523709 15,18.0001925 L15,14.9998075 C15,14.4437166 15.4476291,14 15.9998075,14 L19,14 L19,13 L16.0048815,13 C14.897616,13 14,13.8865548 14,15.0059191 L14,17.9940809 C14,19.1019194 14.8938998,20 16.0048815,20 L19,20 L19,19.25 L19,19.25 L19,17 L19,16 L16,16 L16,17 L18,17 L18,17 Z M21,19 L25,14 L25,13 L20,13 L20,14 L24,14 L20,19 L20,20 L25,20 L25,19 L21,19 L21,19 Z" id="file-tgz" sketch:type="MSShapeGroup"></path>
        </g>
    </g>
</svg>

<svg width="32" height="32" xmlns="http://www.w3.org/2000/svg"><path d="M8.007 10A3.003 3.003 0 0 0 5 12.999V20A2.996 2.996 0 0 0 8.007 23h16.986A3.003 3.003 0 0 0 28 20.001V13A2.996 2.996 0 0 0 24.993 10H8.007zm-.012 1C6.893 11 6 11.9 6 12.992v7.016A2 2 0 0 0 7.995 22h17.01C26.107 22 27 21.1 27 20.008v-7.016A2 2 0 0 0 25.005 11H7.995zM10 14v6h1v-6h2v-1H8v1h2zm8 3v2h-2c-.556 0-1-.448-1-1v-3c0-.556.448-1 1-1h3v-1h-2.995A1.998 1.998 0 0 0 14 15.006v2.988c0 1.108.894 2.006 2.005 2.006H19v-4h-3v1h2zm3 2l4-5v-1h-5v1h4l-4 5v1h5v-1h-4z" fill="#929292" fill-rule="evenodd"/></svg>
